svg/u1f526.svg

<svg viewBox="0 0 128 128" xmlns="http://www.w3.org/2000/svg">
  <g>
    <path d="M121.65,95.24l-51.99-54.9C65.39,19.51,52.21,7.19,52.21,7.19L7.3,52.1c0,0,10.71,14.29,33.15,17.47 l55.2,51.95c5.39,4.58,14.99,2.66,21.76-4.47C123.94,110.19,125.88,100.52,121.65,95.24z" fill="#2F7889"/>
    <path d="M49.64,10c5.73,5.73,1.53,19.22-9.39,30.14s-24.41,15.12-30.14,9.39S8.59,30.31,19.5,19.39 S43.91,4.28,49.64,10" fill="#9E740B"/>
    <path d="M50.92,14.25c4.62,4.62-0.58,15.79-10.67,25.89S18.98,55.43,14.36,50.81s-0.18-16.54,9.92-26.64 S46.31,9.64,50.92,14.25" fill="#FFEE58"/>
    <path d="M53.46,22.84c0,0-3.61,10.05-12.04,18.48S22.94,53.35,22.94,53.35c-4.93-4.93-2.1-15.76,6.33-24.19 S48.53,17.9,53.46,22.84" fill="#FFFFFF"/>
    <path d="M47.71,9.72c4.99,4.99,0.55,17.51-9.91,27.97S14.81,52.59,9.83,47.6s-0.55-17.51,9.91-27.97 S42.73,4.73,47.71,9.72 M52.08,7.05c-3.44-3.44-9.1-3.99-15.95-1.57c-6.08,2.16-12.58,6.49-18.31,12.22S7.75,29.93,5.6,36.01 c-2.43,6.85-1.87,12.52,1.57,15.95s9.1,3.99,15.95,1.57c6.08-2.16,12.58-6.49,18.31-12.22s10.06-12.22,12.22-18.31 C56.07,16.16,55.51,10.49,52.08,7.05L52.08,7.05z" fill="#80DEEA"/>
    <path d="M18.31,40.72c-1.56,0.21-3.03,0.3-2.64-1.02c3.03-10.48,13.29-19.7,20.68-22.77 c1.66-0.69,1.02,1.66,0.79,3.08c-0.24,1.42-0.63,2.25-1.38,2.65c-4.11,2.17-12,8.31-14.78,16.44 C20.66,40.02,19.87,40.51,18.31,40.72z" fill="#FFFF8D"/>
    <path d="M11.25,41.02L11.25,41.02c-1.26,0.36-2.66,1.3-2.41,0.02c2.82-14.75,15.55-27.27,27.93-31.42 c0.71-0.24,0.69,0.45,0.38,2.44c-0.3,1.92-0.72,2.13-1.16,2.36c-7.51,3.88-18.04,11.55-22.88,24.52 C12.87,39.58,12.57,40.53,11.25,41.02z" fill="#E2A610"/>
    <path d="M80.96,72.08l-10.39-9.4c-1.47-1.47-1.47-3.86,0-5.33l1.42-1.62c1.47-1.47,3.86-1.47,5.33,0l10,10 c1.47,1.47,1.47,3.86,0,5.33l-1.03,1.03C84.82,73.55,82.43,73.55,80.96,72.08z" fill="#212121"/>
    <circle cx="75.13" cy="60.22" r="3.28" fill="#49A4BA"/>
    <path d="M54,34.54c0.04,3.8,3.17,2.79,6.19,9.48c1.11,2.47,2.52,1.81,3.21,0.84c3.17-4.47,2.6-5.5,1.54-9.78 c-0.84-3.35-4.33-11.66-5.87-11.94c-1.54-0.28-1.62,1.58-2.07,3.22C55.78,30.85,53.98,32.54,54,34.54z" fill="#49A4BA"/>
    <path d="M36.51,68.84c0,0,10.55-1.83,21.45-12.74s10.79-19.27,10.79-19.59l0.84,3.67 c0,0,1.45,8.64-8.8,18.89S40.2,69.51,40.2,69.51L36.51,68.84z" fill="#212121"/>
  </g>
</svg>

<svg viewBox="0 0 128 128" xmlns="http://www.w3.org/2000/svg">
  <defs/>
  <path d="M121.65,95.24 L69.66,40.34 C65.39,19.51 52.21,7.19 52.21,7.19 L7.3,52.1 C7.3,52.1 18.01,66.39 40.45,69.57 L95.65,121.52 C101.04,126.1 110.64,124.18 117.41,117.05 C123.94,110.19 125.88,100.52 121.65,95.24 Z" fill="#2F7889"/>
  <path d="M49.64,10 C55.37,15.73 51.17,29.22 40.25,40.14 C29.33,51.06 15.84,55.26 10.11,49.53 C4.38,43.8 8.59,30.31 19.5,19.39 C30.41,8.47 43.91,4.28 49.64,10" fill="#9E740B"/>
  <path d="M50.92,14.25 C55.54,18.87 50.34,30.04 40.25,40.14 C30.16,50.24 18.98,55.43 14.36,50.81 C9.74,46.19 14.18,34.27 24.28,24.17 C34.38,14.07 46.31,9.64 50.92,14.25" fill="#FFEE58"/>
  <path d="M53.46,22.84 C53.46,22.84 49.85,32.89 41.42,41.32 C32.99,49.75 22.94,53.35 22.94,53.35 C18.01,48.42 20.84,37.59 29.27,29.16 C37.7,20.73 48.53,17.9 53.46,22.84" fill="#FFFFFF"/>
  <path d="M47.71,9.72 C52.7,14.71 48.26,27.23 37.8,37.69 C27.34,48.15 14.81,52.59 9.83,47.6 C4.85,42.61 9.28,30.09 19.74,19.63 C30.2,9.17 42.73,4.73 47.71,9.72 M52.08,7.05 C48.64,3.61 42.98,3.06 36.13,5.48 C30.05,7.64 23.55,11.97 17.82,17.7 C12.09,23.43 7.75,29.93 5.6,36.01 C3.17,42.86 3.73,48.53 7.17,51.96 C10.61,55.39 16.27,55.95 23.12,53.53 C29.2,51.37 35.7,47.04 41.43,41.31 C47.16,35.58 51.49,29.09 53.65,23 C56.07,16.16 55.51,10.49 52.08,7.05 L52.08,7.05 Z" fill="#80DEEA"/>
  <path d="M18.31,40.72 C16.75,40.93 15.28,41.02 15.67,39.7 C18.7,29.22 28.96,20 36.35,16.93 C38.01,16.24 37.37,18.59 37.14,20.01 C36.9,21.43 36.51,22.26 35.76,22.66 C31.65,24.83 23.76,30.97 20.98,39.1 C20.66,40.02 19.87,40.51 18.31,40.72 Z" fill="#FFFF8D"/>
  <path d="M11.25,41.02 L11.25,41.02 C9.99,41.38 8.59,42.32 8.84,41.04 C11.66,26.29 24.39,13.77 36.77,9.62 C37.48,9.38 37.46,10.07 37.15,12.06 C36.85,13.98 36.43,14.19 35.99,14.42 C28.48,18.3 17.95,25.97 13.11,38.94 C12.87,39.58 12.57,40.53 11.25,41.02 Z" fill="#E2A610"/>
  <path d="M80.96,72.08 L70.57,62.68 C69.1,61.21 69.1,58.82 70.57,57.35 L71.99,55.73 C73.46,54.26 75.85,54.26 77.32,55.73 L87.32,65.73 C88.79,67.2 88.79,69.59 87.32,71.06 L86.29,72.09 C84.82,73.55 82.43,73.55 80.96,72.08 Z" fill="#212121"/>
  <path d="M78.41,60.22 A3.28 3.28 0 1 1 71.85,60.22 A3.28 3.28 0 1 1 78.41,60.22 Z" fill="#49A4BA"/>
  <path d="M54,34.54 C54.04,38.34 57.17,37.33 60.19,44.02 C61.3,46.49 62.71,45.83 63.4,44.86 C66.57,40.39 66,39.36 64.94,35.08 C64.1,31.73 60.61,23.42 59.07,23.14 C57.53,22.86 57.45,24.72 57,26.36 C55.78,30.85 53.98,32.54 54,34.54 Z" fill="#49A4BA"/>
  <path d="M36.51,68.84 C36.51,68.84 47.06,67.01 57.96,56.1 C68.86,45.19 68.75,36.83 68.75,36.51 L69.59,40.18 C69.59,40.18 71.04,48.82 60.79,59.07 C50.54,69.32 40.2,69.51 40.2,69.51 L36.51,68.84 Z" fill="#212121"/>
</svg>
